imgs/04-03-click.svg

<svg xmlns="http://www.w3.org/2000/svg" width="640" height="50" viewBox="0 0 640 50"><path fill="#6D6A1D" d="M606.999 33l9.999 1.469-9.999 9.531z"/><path fill="#FFFA6C" d="M516.999 6h100.001v29h-100.001z"/><path fill="#0C5259" d="M535.312 26.578c2.295-.094 3.75-1.359 4.357-3.796l1.828.422c-.893 3.048-2.932 4.593-6.117 4.64-4.031-.234-6.165-2.554-6.396-6.96.187-4.781 2.367-7.289 6.539-7.523 2.672.094 4.568 1.453 5.693 4.078l-1.758.422c-.844-2.015-2.204-3.047-4.078-3.094-2.859.281-4.43 2.274-4.711 5.977.188 3.609 1.736 5.553 4.643 5.834zm18.126 1.055v-1.266h-7.242v-12.797h-1.615v14.062l8.857.001zm3.431 0h1.547v-14.063h-1.547v14.063zm11.52-1.055c2.295-.094 3.747-1.359 4.357-3.796l1.828.422c-.893 3.048-2.932 4.593-6.117 4.64-4.032-.234-6.165-2.554-6.398-6.96.188-4.781 2.366-7.289 6.541-7.523 2.672.094 4.568 1.453 5.693 4.078l-1.758.422c-.846-2.015-2.204-3.047-4.078-3.094-2.859.281-4.43 2.274-4.711 5.977.188 3.609 1.733 5.553 4.643 5.834zm18.757 1.055l-5.063-7.241-2.813 2.813v4.43h-1.617v-14.065h1.617v7.664l7.523-7.664h2.25l-5.977 5.836 6.258 8.226-2.178.001zm7.086-.071v-2.039h-2.18v2.039h2.18zm6.527 0v-2.039h-2.18v2.039h2.18zm6.524 0v-2.039h-2.182v2.039h2.182z"/></svg>

<?xml version="1.0" encoding="utf-8"?>
<!-- Generator: Adobe Illustrator 16.0.0, SVG Export Plug-In . SVG Version: 6.00 Build 0)  -->
<!DOCTYPE svg PUBLIC "-//W3C//DTD SVG 1.1//EN" "http://www.w3.org/Graphics/SVG/1.1/DTD/svg11.dtd">
<svg version="1.1" id="图层_1" xmlns="http://www.w3.org/2000/svg" xmlns:xlink="http://www.w3.org/1999/xlink" x="0px" y="0px"
	 width="640px" height="50px" viewBox="0 0 640 50" enable-background="new 0 0 640 50" xml:space="preserve">
<g>
	<polygon fill="#6D6A1D" points="606.999,33 616.998,34.469 606.999,44 	"/>
	<rect x="516.999" y="6" fill="#FFFA6C" width="100.001" height="29"/>
	<path fill="#0C5259" d="M535.312,26.578c2.295-0.094,3.75-1.359,4.357-3.796l1.828,0.422c-0.893,3.048-2.932,4.593-6.117,4.64
		c-4.031-0.234-6.165-2.554-6.396-6.96c0.187-4.781,2.367-7.289,6.539-7.523c2.672,0.094,4.568,1.453,5.693,4.078l-1.758,0.422
		c-0.844-2.015-2.204-3.047-4.078-3.094c-2.859,0.281-4.43,2.274-4.711,5.977C530.857,24.353,532.405,26.297,535.312,26.578
		L535.312,26.578z M553.438,27.633v-1.266h-7.242V13.57h-1.615v14.062L553.438,27.633L553.438,27.633z M556.869,27.633h1.547V13.57
		h-1.547V27.633z M568.389,26.578c2.295-0.094,3.747-1.359,4.357-3.796l1.828,0.422c-0.893,3.048-2.932,4.593-6.117,4.64
		c-4.032-0.234-6.165-2.554-6.398-6.96c0.188-4.781,2.366-7.289,6.541-7.523c2.672,0.094,4.568,1.453,5.693,4.078l-1.758,0.422
		c-0.846-2.015-2.204-3.047-4.078-3.094c-2.859,0.281-4.43,2.274-4.711,5.977C563.934,24.353,565.479,26.297,568.389,26.578
		L568.389,26.578z M587.146,27.633l-5.063-7.241l-2.813,2.813v4.43h-1.617V13.57h1.617v7.664l7.523-7.664h2.25l-5.977,5.836
		l6.258,8.226L587.146,27.633L587.146,27.633z M594.232,27.562v-2.039h-2.18v2.039H594.232z M600.759,27.562v-2.039h-2.18v2.039
		H600.759z M607.283,27.562v-2.039h-2.182v2.039H607.283z"/>
</g>
</svg>
